img/zooo_beefor.svg

<svg width="147" height="548" viewBox="0 0 147 548" fill="none" xmlns="http://www.w3.org/2000/svg">
<path opacity="0.6" fill-rule="evenodd" clip-rule="evenodd" d="M165.609 548L142.924 548L28.2989 508.823L28.2989 546.201L2.19217 546.201L2.19216 471.25L23.4823 471.25L139.502 511.026L139.502 470.851L165.609 470.851L165.609 548ZM140.498 512.423L23.3167 472.25L3.18861 472.25L3.18861 545.202L27.3025 545.202L27.3025 507.427L143.089 547.001L164.612 547.001L164.612 471.85L140.498 471.85L140.498 512.423ZM36.2576 394.922L36.2494 394.924C33.4811 395.428 31.2732 396.489 29.5748 398.07C27.9968 399.54 27.1032 401.949 27.1032 405.533C27.1032 408.823 27.9831 411.113 29.5748 412.595C31.2732 414.177 33.4811 415.237 36.2494 415.742L36.2576 415.744C38.9793 416.264 41.9056 416.525 45.0391 416.525L122.762 416.525C125.766 416.525 128.703 416.329 131.573 415.938C134.34 415.43 136.546 414.432 138.24 412.982C139.809 411.511 140.698 409.105 140.698 405.533C140.698 401.949 139.804 399.54 138.226 398.07C136.528 396.489 134.32 395.428 131.551 394.924C128.689 394.402 125.759 394.14 122.762 394.14L45.0391 394.14C41.9056 394.14 38.9792 394.402 36.2576 394.922ZM138.904 413.727C137.044 415.326 134.652 416.392 131.73 416.925C128.807 417.325 125.817 417.525 122.762 417.525L45.0391 417.525C41.8505 417.525 38.8612 417.258 36.0712 416.725C33.1483 416.192 30.7568 415.06 28.8968 413.328C27.0368 411.595 26.1068 408.997 26.1068 405.533C26.1068 401.802 27.0368 399.07 28.8968 397.338C30.7568 395.606 33.1483 394.473 36.0712 393.94C38.8612 393.407 41.8505 393.141 45.0391 393.141L122.762 393.141C125.817 393.141 128.807 393.407 131.73 393.94C134.652 394.473 137.044 395.606 138.904 397.338C140.764 399.07 141.694 401.802 141.694 405.533C141.694 409.264 140.764 411.995 138.904 413.727ZM168 405.533C168 417.76 165.859 427.556 161.479 434.83C157.109 442.09 150.819 447.296 142.648 450.437C134.535 453.556 124.909 455.1 113.794 455.1L53.8078 455.1C42.562 455.1 32.9326 453.557 24.9477 450.435C16.9091 447.292 10.7528 442.084 6.51709 434.824C2.14005 427.55 -5.69132e-06 417.757 -6.22548e-06 405.533C-6.76526e-06 393.18 2.1385 383.32 6.51491 376.045C10.7486 368.653 16.9045 363.375 24.9477 360.231C32.9326 357.109 42.562 355.566 53.8078 355.566L113.794 355.566C124.909 355.566 134.535 357.11 142.648 360.229C150.823 363.371 157.113 368.647 161.482 376.039C165.86 383.314 168 393.177 168 405.533ZM160.626 376.552C156.375 369.356 150.263 364.227 142.292 361.162C134.32 358.097 124.821 356.565 113.794 356.565L53.8078 356.565C42.6477 356.565 33.1483 358.097 25.3096 361.162C17.4709 364.227 11.4923 369.356 7.37366 376.552C3.12218 383.614 0.996434 393.274 0.996435 405.533C0.996436 417.658 3.12218 427.252 7.37366 434.314C11.4923 441.376 17.4709 446.439 25.3096 449.504C33.1483 452.568 42.6477 454.101 53.8078 454.101L113.794 454.101C124.821 454.101 134.32 452.568 142.292 449.504C150.263 446.439 156.375 441.376 160.626 434.314C164.878 427.252 167.004 417.658 167.004 405.533C167.004 393.274 164.878 383.614 160.626 376.552ZM36.2576 273.814L36.2494 273.816C33.4811 274.32 31.2732 275.381 29.5748 276.962C27.9968 278.432 27.1032 280.841 27.1032 284.425C27.1032 287.715 27.9831 290.005 29.5748 291.487C31.2732 293.069 33.4811 294.129 36.2494 294.634L36.2576 294.636C38.9792 295.156 41.9056 295.418 45.0391 295.418L122.762 295.418C125.766 295.418 128.703 295.222 131.573 294.83C134.34 294.322 136.546 293.324 138.24 291.874C139.809 290.403 140.697 287.998 140.697 284.425C140.697 280.841 139.804 278.432 138.226 276.962C136.528 275.381 134.32 274.32 131.551 273.816C128.689 273.294 125.759 273.032 122.762 273.032L45.0391 273.032C41.9056 273.032 38.9792 273.294 36.2576 273.814ZM131.73 295.817C128.807 296.217 125.817 296.417 122.762 296.417L45.0391 296.417C41.8505 296.417 38.8612 296.15 36.0712 295.617C33.1483 295.084 30.7568 293.952 28.8968 292.22C27.0368 290.487 26.1068 287.889 26.1068 284.425C26.1068 280.694 27.0368 277.962 28.8968 276.23C30.7568 274.498 33.1483 273.365 36.0712 272.832C38.8612 272.299 41.8505 272.033 45.0391 272.033L122.762 272.033C125.817 272.033 128.807 272.299 131.73 272.832C134.652 273.365 137.044 274.498 138.904 276.23C140.764 277.962 141.694 280.694 141.694 284.425C141.694 288.156 140.764 290.887 138.904 292.619C137.044 294.218 134.652 295.284 131.73 295.817ZM168 284.425C168 296.652 165.859 306.448 161.479 313.722C157.109 320.982 150.819 326.188 142.648 329.329C134.535 332.448 124.909 333.992 113.794 333.992L53.8078 333.992C42.562 333.992 32.9326 332.449 24.9477 329.327C16.9092 326.184 10.7529 320.976 6.51723 313.717C2.14009 306.443 -1.09834e-05 296.649 -1.15176e-05 284.425C-1.20574e-05 272.072 2.13856 262.212 6.51513 254.936C10.7489 247.545 16.9046 242.267 24.9477 239.123C32.9326 236.001 42.562 234.458 53.8078 234.458L113.794 234.458C124.909 234.458 134.535 236.002 142.648 239.121C150.823 242.263 157.112 247.538 161.481 254.93C165.86 262.206 168 272.068 168 284.425ZM160.626 255.444C156.375 248.249 150.263 243.119 142.292 240.054C134.32 236.989 124.821 235.457 113.794 235.457L53.8078 235.457C42.6477 235.457 33.1483 236.989 25.3096 240.054C17.4709 243.119 11.4923 248.249 7.37365 255.444C3.12217 262.506 0.996429 272.166 0.99643 284.425C0.99643 296.55 3.12217 306.144 7.37366 313.206C11.4923 320.268 17.4709 325.331 25.3096 328.396C33.1483 331.461 42.6477 332.993 53.8078 332.993L113.794 332.993C124.821 332.993 134.32 331.461 142.292 328.396C150.263 325.331 156.375 320.268 160.626 313.206C164.878 306.144 167.004 296.55 167.004 284.425C167.004 272.166 164.878 262.506 160.626 255.444ZM36.2576 152.706L36.2494 152.708C33.4811 153.213 31.2732 154.273 29.5748 155.855C27.9968 157.324 27.1032 159.733 27.1032 163.317C27.1032 166.607 27.9831 168.897 29.5748 170.379C31.2732 171.961 33.4811 173.022 36.2494 173.526L36.2576 173.528C38.9792 174.048 41.9056 174.31 45.0391 174.31L122.762 174.31C125.766 174.31 128.703 174.114 131.573 173.722C134.34 173.215 136.546 172.216 138.24 170.766C139.809 169.295 140.697 166.89 140.697 163.317C140.697 159.733 139.804 157.324 138.226 155.855C136.528 154.273 134.32 153.213 131.551 152.708C128.689 152.186 125.759 151.924 122.762 151.924L45.0391 151.924C41.9056 151.924 38.9792 152.186 36.2576 152.706ZM131.73 174.709C128.807 175.109 125.817 175.309 122.762 175.309L45.0391 175.309C41.8505 175.309 38.8612 175.043 36.0712 174.51C33.1483 173.977 30.7568 172.844 28.8968 171.112C27.0367 169.38 26.1067 166.781 26.1067 163.317C26.1067 159.586 27.0367 156.854 28.8968 155.122C30.7568 153.39 33.1483 152.258 36.0712 151.725C38.8612 151.192 41.8505 150.925 45.0391 150.925L122.762 150.925C125.817 150.925 128.807 151.192 131.73 151.725C134.652 152.258 137.044 153.39 138.904 155.122C140.764 156.854 141.694 159.586 141.694 163.317C141.694 167.048 140.764 169.779 138.904 171.511C137.044 173.11 134.652 174.176 131.73 174.709ZM168 163.317C168 175.544 165.859 185.34 161.479 192.615C157.109 199.875 150.819 205.08 142.648 208.221C134.535 211.34 124.909 212.884 113.794 212.884L53.8078 212.884C42.562 212.884 32.9326 211.341 24.9477 208.219C16.9092 205.076 10.7529 199.869 6.51722 192.609C2.14008 185.335 -1.62756e-05 175.541 -1.68097e-05 163.317C-1.73495e-05 150.964 2.13856 141.104 6.51513 133.829C10.7489 126.437 16.9046 121.16 24.9477 118.015C32.9326 114.893 42.562 113.35 53.8078 113.35L113.794 113.35C124.909 113.35 134.535 114.894 142.648 118.013C150.823 121.156 157.112 126.43 161.481 133.822C165.86 141.098 168 150.96 168 163.317ZM160.626 134.336C156.375 127.141 150.263 122.011 142.292 118.946C134.32 115.881 124.821 114.349 113.794 114.349L53.8078 114.349C42.6477 114.349 33.1483 115.881 25.3096 118.946C17.4709 122.011 11.4923 127.141 7.37365 134.336C3.12217 141.398 0.996424 151.058 0.996424 163.317C0.996425 175.442 3.12217 185.036 7.37365 192.098C11.4923 199.16 17.4709 204.223 25.3096 207.288C33.1483 210.353 42.6477 211.885 53.8078 211.885L113.794 211.885C124.821 211.885 134.32 210.353 142.292 207.288C150.263 204.223 156.375 199.16 160.626 192.098C164.878 185.036 167.004 175.442 167.004 163.317C167.004 151.058 164.878 141.398 160.626 134.336ZM165.609 69.3895L2.19215 98.9306L2.19215 66.3015L106.197 49.8018L2.19215 34.4401L2.19214 -9.58529e-08L165.609 29.9457L165.609 69.3895ZM112.797 49.7666L3.18859 67.1551L3.18859 97.735L164.612 68.5542L164.612 30.779L3.18858 1.19849L3.18859 33.5772L112.797 49.7666Z" fill="white"/>
</svg>

<svg width="147" height="548" fill="none" xmlns="http://www.w3.org/2000/svg"><path opacity=".6" fill-rule="evenodd" clip-rule="evenodd" d="M165.609 548h-22.685L28.299 508.823v37.378H2.192V471.25h21.29l116.02 39.776v-40.175h26.107V548zm-25.111-35.577L23.317 472.25H3.189v72.952h24.113v-37.775l115.787 39.574h21.523V471.85h-24.114v40.573zM36.258 394.922l-.009.002c-2.768.504-4.976 1.565-6.674 3.146-1.578 1.47-2.472 3.879-2.472 7.463 0 3.29.88 5.58 2.472 7.062 1.698 1.582 3.906 2.642 6.674 3.147l.009.002c2.721.52 5.648.781 8.781.781h77.723c3.004 0 5.941-.196 8.811-.587 2.767-.508 4.973-1.506 6.667-2.956 1.569-1.471 2.458-3.877 2.458-7.449 0-3.584-.894-5.993-2.472-7.463-1.698-1.581-3.906-2.642-6.675-3.146a48.889 48.889 0 00-8.789-.784H45.039c-3.133 0-6.06.262-8.781.782zm102.646 18.805c-1.86 1.599-4.252 2.665-7.174 3.198-2.923.4-5.913.6-8.968.6H45.039c-3.189 0-6.178-.267-8.968-.8-2.923-.533-5.314-1.665-7.174-3.397-1.86-1.733-2.79-4.331-2.79-7.795 0-3.731.93-6.463 2.79-8.195 1.86-1.732 4.251-2.865 7.174-3.398 2.79-.533 5.78-.799 8.968-.799h77.723c3.055 0 6.045.266 8.968.799 2.922.533 5.314 1.666 7.174 3.398 1.86 1.732 2.79 4.464 2.79 8.195s-.93 6.462-2.79 8.194zM168 405.533c0 12.227-2.141 22.023-6.521 29.297-4.37 7.26-10.66 12.466-18.831 15.607-8.113 3.119-17.739 4.663-28.854 4.663H53.808c-11.246 0-20.875-1.543-28.86-4.665-8.039-3.143-14.195-8.351-18.43-15.611C2.14 427.55 0 417.757 0 405.533c0-12.353 2.139-22.213 6.515-29.488 4.234-7.392 10.39-12.67 18.433-15.814 7.985-3.122 17.614-4.665 28.86-4.665h59.986c11.115 0 20.741 1.544 28.854 4.663 8.175 3.142 14.465 8.418 18.834 15.81 4.378 7.275 6.518 17.138 6.518 29.494zm-7.374-28.981c-4.251-7.196-10.363-12.325-18.334-15.39-7.972-3.065-17.471-4.597-28.498-4.597H53.808c-11.16 0-20.66 1.532-28.498 4.597-7.84 3.065-13.818 8.194-17.936 15.39-4.252 7.062-6.378 16.722-6.378 28.981 0 12.125 2.126 21.719 6.378 28.781 4.118 7.062 10.097 12.125 17.936 15.19 7.838 3.064 17.338 4.597 28.498 4.597h59.986c11.027 0 20.526-1.533 28.498-4.597 7.971-3.065 14.083-8.128 18.334-15.19 4.252-7.062 6.378-16.656 6.378-28.781 0-12.259-2.126-21.919-6.378-28.981zM36.258 273.814l-.009.002c-2.768.504-4.976 1.565-6.674 3.146-1.578 1.47-2.472 3.879-2.472 7.463 0 3.29.88 5.58 2.472 7.062 1.698 1.582 3.906 2.642 6.674 3.147l.009.002c2.721.52 5.648.782 8.781.782h77.723c3.004 0 5.941-.196 8.811-.588 2.767-.508 4.973-1.506 6.667-2.956 1.569-1.471 2.457-3.876 2.457-7.449 0-3.584-.893-5.993-2.471-7.463-1.698-1.581-3.906-2.642-6.675-3.146a48.889 48.889 0 00-8.789-.784H45.039c-3.133 0-6.06.262-8.781.782zm95.472 22.003c-2.923.4-5.913.6-8.968.6H45.039c-3.189 0-6.178-.267-8.968-.8-2.923-.533-5.314-1.665-7.174-3.397-1.86-1.733-2.79-4.331-2.79-7.795 0-3.731.93-6.463 2.79-8.195 1.86-1.732 4.251-2.865 7.174-3.398 2.79-.533 5.78-.799 8.968-.799h77.723c3.055 0 6.045.266 8.968.799 2.922.533 5.314 1.666 7.174 3.398 1.86 1.732 2.79 4.464 2.79 8.195s-.93 6.462-2.79 8.194c-1.86 1.599-4.252 2.665-7.174 3.198zM168 284.425c0 12.227-2.141 22.023-6.521 29.297-4.37 7.26-10.66 12.466-18.831 15.607-8.113 3.119-17.739 4.663-28.854 4.663H53.808c-11.246 0-20.875-1.543-28.86-4.665-8.039-3.143-14.195-8.351-18.43-15.61C2.14 306.443 0 296.649 0 284.425c0-12.353 2.139-22.213 6.515-29.489 4.234-7.391 10.39-12.669 18.433-15.813 7.985-3.122 17.614-4.665 28.86-4.665h59.986c11.115 0 20.741 1.544 28.854 4.663 8.175 3.142 14.464 8.417 18.833 15.809 4.379 7.276 6.519 17.138 6.519 29.495zm-7.374-28.981c-4.251-7.195-10.363-12.325-18.334-15.39-7.972-3.065-17.471-4.597-28.498-4.597H53.808c-11.16 0-20.66 1.532-28.498 4.597-7.84 3.065-13.818 8.195-17.936 15.39-4.252 7.062-6.378 16.722-6.378 28.981 0 12.125 2.126 21.719 6.378 28.781 4.118 7.062 10.097 12.125 17.936 15.19 7.838 3.065 17.338 4.597 28.498 4.597h59.986c11.027 0 20.526-1.532 28.498-4.597 7.971-3.065 14.083-8.128 18.334-15.19 4.252-7.062 6.378-16.656 6.378-28.781 0-12.259-2.126-21.919-6.378-28.981zM36.258 152.706l-.009.002c-2.768.505-4.976 1.565-6.674 3.147-1.578 1.469-2.472 3.878-2.472 7.462 0 3.29.88 5.58 2.472 7.062 1.698 1.582 3.906 2.643 6.674 3.147l.009.002c2.721.52 5.648.782 8.781.782h77.723c3.004 0 5.941-.196 8.811-.588 2.767-.507 4.973-1.506 6.667-2.956 1.569-1.471 2.457-3.876 2.457-7.449 0-3.584-.893-5.993-2.471-7.462-1.698-1.582-3.906-2.642-6.675-3.147a48.889 48.889 0 00-8.789-.784H45.039c-3.133 0-6.06.262-8.781.782zm95.472 22.003c-2.923.4-5.913.6-8.968.6H45.039c-3.189 0-6.178-.266-8.968-.799-2.923-.533-5.314-1.666-7.174-3.398-1.86-1.732-2.79-4.331-2.79-7.795 0-3.731.93-6.463 2.79-8.195 1.86-1.732 4.251-2.864 7.174-3.397 2.79-.533 5.78-.8 8.968-.8h77.723c3.055 0 6.045.267 8.968.8 2.922.533 5.314 1.665 7.174 3.397 1.86 1.732 2.79 4.464 2.79 8.195s-.93 6.462-2.79 8.194c-1.86 1.599-4.252 2.665-7.174 3.198zM168 163.317c0 12.227-2.141 22.023-6.521 29.298-4.37 7.26-10.66 12.465-18.831 15.606-8.113 3.119-17.739 4.663-28.854 4.663H53.808c-11.246 0-20.875-1.543-28.86-4.665-8.039-3.143-14.195-8.35-18.43-15.61C2.14 185.335 0 175.541 0 163.317c0-12.353 2.139-22.213 6.515-29.488 4.234-7.392 10.39-12.669 18.433-15.814 7.985-3.122 17.614-4.665 28.86-4.665h59.986c11.115 0 20.741 1.544 28.854 4.663 8.175 3.143 14.464 8.417 18.833 15.809 4.379 7.276 6.519 17.138 6.519 29.495zm-7.374-28.981c-4.251-7.195-10.363-12.325-18.334-15.39-7.972-3.065-17.471-4.597-28.498-4.597H53.808c-11.16 0-20.66 1.532-28.498 4.597-7.84 3.065-13.818 8.195-17.936 15.39-4.252 7.062-6.378 16.722-6.378 28.981 0 12.125 2.126 21.719 6.378 28.781 4.118 7.062 10.097 12.125 17.936 15.19 7.838 3.065 17.338 4.597 28.498 4.597h59.986c11.027 0 20.526-1.532 28.498-4.597 7.971-3.065 14.083-8.128 18.334-15.19 4.252-7.062 6.378-16.656 6.378-28.781 0-12.259-2.126-21.919-6.378-28.981zm4.983-64.947L2.192 98.931V66.3l104.005-16.5L2.192 34.442V0L165.61 29.946v39.443zm-52.812-19.622L3.189 67.155v30.58l161.423-29.18V30.778L3.189 1.199v32.378l109.608 16.19z" fill="#fff"/></svg>
